X:27
M:6/8
L:1/8
K:A
|: A2c e2c | BdB c2A | A2c e2c | BAG A3::B2E d2E | efg a2a | cec cec | BAG A3 :|

